X:9000
T:La Musga\~na tune 2
R:Other
O:Spain
M:2/4
L:1/8
A:Galicia
K:Em
A|\
B2 BA|B4|e2d2|B2B^c|(A4|A3)F|\
G2GE|F2F2|B2BA|F3G|(E4|E3)::
B|\
e2ef|g2fg|a2ag|f3e|d2 ^c/e/d/=c/|(B4|B3)B|\
e2ef|g2ga|b2ba|f2za|g2gf|(e4|e3):|


